svg/color/bchc.svg

<?xml version="1.0" encoding="UTF-8" ?>
<!DOCTYPE svg PUBLIC "-//W3C//DTD SVG 1.1//EN" "http://www.w3.org/Graphics/SVG/1.1/DTD/svg11.dtd">
<svg width="250pt" height="250pt" viewBox="0 0 250 250" version="1.1" xmlns="http://www.w3.org/2000/svg">
<g id="#ffffffff">
<path fill="#ffffff" opacity="1.00" d=" M 0.00 0.00 L 250.00 0.00 L 250.00 250.00 L 0.00 250.00 L 0.00 0.00 M 23.98 35.10 C 16.66 37.53 11.99 45.37 12.45 52.94 C 12.59 74.07 12.25 95.21 12.63 116.34 C 15.23 112.35 17.47 108.13 20.40 104.36 C 27.46 94.91 36.98 87.64 47.30 82.05 C 47.34 72.35 47.36 62.65 47.26 52.94 C 47.19 48.14 46.03 43.00 42.52 39.49 C 37.97 34.35 30.33 33.27 23.98 35.10 M 63.78 81.70 C 43.93 87.20 26.86 102.14 19.23 121.33 C 14.12 132.84 13.38 145.78 14.90 158.14 C 17.74 177.09 29.27 194.34 45.33 204.68 C 59.24 213.82 76.63 217.25 93.01 214.60 C 108.30 212.42 122.42 204.36 132.92 193.15 C 145.22 206.50 162.78 214.95 181.01 215.43 C 200.76 216.20 221.14 208.30 233.91 192.96 C 239.12 185.52 236.87 173.77 229.01 169.05 C 222.81 165.03 213.99 165.51 208.40 170.40 C 203.94 174.24 199.30 178.23 193.41 179.62 C 175.59 186.17 154.03 173.36 150.58 154.85 C 150.78 147.79 149.17 140.21 152.55 133.66 C 159.05 118.18 178.29 109.22 194.17 115.23 C 199.73 116.97 204.33 120.65 208.64 124.44 C 214.30 129.44 223.23 129.32 229.41 125.36 C 237.65 119.90 239.30 106.79 232.39 99.64 C 221.32 88.11 205.95 80.85 190.03 79.53 C 182.67 79.31 175.17 79.05 168.00 81.00 C 154.51 83.85 142.63 91.64 132.96 101.25 C 128.54 97.57 124.56 93.34 119.62 90.30 C 103.43 79.44 82.48 76.65 63.78 81.70 Z" />
<path fill="#ffffff" opacity="1.00" d=" M 77.27 113.74 C 92.73 111.24 108.93 121.19 114.02 135.95 C 116.48 141.35 115.04 147.36 115.39 153.07 C 113.08 169.88 96.10 182.75 79.34 181.23 C 71.60 180.21 64.01 177.16 58.47 171.53 C 51.70 164.93 47.69 155.42 48.36 145.93 C 48.54 130.04 61.72 116.01 77.27 113.74 Z" />
</g>
<g id="#d92628ff">
<path fill="#d92628" opacity="1.00" d=" M 23.98 35.10 C 30.33 33.27 37.97 34.35 42.52 39.49 C 46.03 43.00 47.19 48.14 47.26 52.94 C 47.36 62.65 47.34 72.35 47.30 82.05 C 36.98 87.64 27.46 94.91 20.40 104.36 C 17.47 108.13 15.23 112.35 12.63 116.34 C 12.25 95.21 12.59 74.07 12.45 52.94 C 11.99 45.37 16.66 37.53 23.98 35.10 Z" />
<path fill="#d92628" opacity="1.00" d=" M 63.78 81.70 C 82.48 76.65 103.43 79.44 119.62 90.30 C 124.56 93.34 128.54 97.57 132.96 101.25 C 142.63 91.64 154.51 83.85 168.00 81.00 C 175.17 79.05 182.67 79.31 190.03 79.53 C 205.95 80.85 221.32 88.11 232.39 99.64 C 239.30 106.79 237.65 119.90 229.41 125.36 C 223.23 129.32 214.30 129.44 208.64 124.44 C 204.33 120.65 199.73 116.97 194.17 115.23 C 178.29 109.22 159.05 118.18 152.55 133.66 C 149.17 140.21 150.78 147.79 150.58 154.85 C 154.03 173.36 175.59 186.17 193.41 179.62 C 199.30 178.23 203.94 174.24 208.40 170.40 C 213.99 165.51 222.81 165.03 229.01 169.05 C 236.87 173.77 239.12 185.52 233.91 192.96 C 221.14 208.30 200.76 216.20 181.01 215.43 C 162.78 214.95 145.22 206.50 132.92 193.15 C 122.42 204.36 108.30 212.42 93.01 214.60 C 76.63 217.25 59.24 213.82 45.33 204.68 C 29.27 194.34 17.74 177.09 14.90 158.14 C 13.38 145.78 14.12 132.84 19.23 121.33 C 26.86 102.14 43.93 87.20 63.78 81.70 M 77.27 113.74 C 61.72 116.01 48.54 130.04 48.36 145.93 C 47.69 155.42 51.70 164.93 58.47 171.53 C 64.01 177.16 71.60 180.21 79.34 181.23 C 96.10 182.75 113.08 169.88 115.39 153.07 C 115.04 147.36 116.48 141.35 114.02 135.95 C 108.93 121.19 92.73 111.24 77.27 113.74 Z" />
</g>
</svg>

<?xml version="1.0" encoding="utf-8"?>
<!-- Generator: Adobe Illustrator 26.0.3, SVG Export Plug-In . SVG Version: 6.00 Build 0)  -->
<svg version="1.1" id="Layer_1" xmlns="http://www.w3.org/2000/svg" xmlns:xlink="http://www.w3.org/1999/xlink" x="0px" y="0px"
	 viewBox="0 0 250 250" style="enable-background:new 0 0 250 250;" xml:space="preserve">
<style type="text/css">
	.st0{fill:#FFFFFF;}
	.st1{fill:#D92628;}
</style>
<g id="_x23_ffffffff">
	<path class="st0" d="M77.3,113.7c15.5-2.5,31.7,7.5,36.8,22.2c2.5,5.4,1,11.4,1.4,17.1c-2.3,16.8-19.3,29.7-36.1,28.2
		c-7.7-1-15.3-4.1-20.9-9.7c-6.8-6.6-10.8-16.1-10.1-25.6C48.5,130,61.7,116,77.3,113.7z"/>
</g>
<g id="_x23_d92628ff">
	<path class="st1" d="M24,35.1c6.4-1.8,14-0.8,18.5,4.4c3.5,3.5,4.7,8.6,4.7,13.4c0.1,9.7,0.1,19.4,0,29.1
		C37,87.6,27.5,94.9,20.4,104.4c-2.9,3.8-5.2,8-7.8,12c-0.4-21.1,0-42.3-0.2-63.4C12,45.4,16.7,37.5,24,35.1z"/>
	<path class="st1" d="M63.8,81.7c18.7-5,39.7-2.3,55.8,8.6c4.9,3,8.9,7.3,13.3,10.9c9.7-9.6,21.5-17.4,35-20.2
		c7.2-1.9,14.7-1.7,22-1.5c15.9,1.3,31.3,8.6,42.4,20.1c6.9,7.2,5.3,20.3-3,25.7c-6.2,4-15.1,4.1-20.8-0.9
		c-4.3-3.8-8.9-7.5-14.5-9.2c-15.9-6-35.1,2.9-41.6,18.4c-3.4,6.6-1.8,14.1-2,21.2c3.4,18.5,25,31.3,42.8,24.8
		c5.9-1.4,10.5-5.4,15-9.2c5.6-4.9,14.4-5.4,20.6-1.3c7.9,4.7,10.1,16.5,4.9,23.9c-12.8,15.3-33.2,23.2-52.9,22.5
		c-18.2-0.5-35.8-8.9-48.1-22.3c-10.5,11.2-24.6,19.3-39.9,21.5c-16.4,2.6-33.8-0.8-47.7-9.9c-16.1-10.3-27.6-27.6-30.4-46.5
		c-1.5-12.4-0.8-25.3,4.3-36.8C26.9,102.1,43.9,87.2,63.8,81.7 M77.3,113.7C61.7,116,48.5,130,48.4,145.9c-0.7,9.5,3.3,19,10.1,25.6
		c5.5,5.6,13.1,8.7,20.9,9.7c16.8,1.5,33.7-11.3,36.1-28.2c-0.3-5.7,1.1-11.7-1.4-17.1C108.9,121.2,92.7,111.2,77.3,113.7z"/>
</g>
</svg>
